!!!COM:	la Rue, Pierre de
!!!CDT:	~1452///-1518/11/20
!!!OTL:	Pater de celis deus
!!!AGN:	Motet
!!!SCT:	Rue2017
!!!SCA:	Rue2017
!!!voices:	6
**kern	**kern	**kern	**kern	**kern	**kern
*staff6	*staff5	*staff4	*staff3	*staff2	*staff1
*Ivox	*Ivox	*Ivox	*Ivox	*Ivox	*Ivox
*I"Bassus	*I"Tenor	*I"Quintus	*I"Sextus	*I"Contra	*I"Discantus
*I'B	*I'T	*I'Q	*I'S	*I'C	*I'D
*>[A,B]	*>[A,B]	*>[A,B]	*>[A,B]	*>[A,B]	*>[A,B]
*>A	*>A	*>A	*>A	*>A	*>A
*clefF4	*clefGv2	*clefGv2	*clefGv2	*clefGv2	*clefG2
*k[]	*k[]	*k[]	*k[]	*k[]	*k[]
*M2/1	*M2/1	*M2/1	*M2/1	*M2/1	*M2/1
*met(C2)	*met(C2)	*met(C2)	*met(C2)	*met(C2)	*met(C2)
!!section: Pater de celis, deus
!!!OMD: Pater de celis, deus
=1-	=1-	=1-	=1-	=1-	=1-
1r	0r	1r	0r	1A	0r
1A	.	1A	.	2.c\	.
.	.	.	.	4d\	.
=2.	=2.	=2.	=2.	=2.	=2.
1.A	0r	1.c	0r	2e\	0r
.	.	.	.	1f	.
2G\	.	2B\	.	2e\	.
=3	=3	=3	=3	=3	=3
2F\	0r	2A/	0r	2d\	0r
2E\	.	2G/	.	2c\	.
1F	.	1A	.	1d	.
=4.	=4.	=4.	=4.	=4.	=4.
1E	1r	1B	0r	1.e	0r
2E\	1G	[1B	.	.	.
[2G\	.	.	.	2d\	.
=5	=5	=5	=5	=5	=5
4G\]	1.G	2B\]	0r	2e\	0r
4F\	.	.	.	.	.
4E\	.	2B\	.	2.g\	.
4D\	.	.	.	.	.
2C/	.	2.c\	.	.	.
.	.	.	.	4f\	.
2D\	2F/	.	.	4e\	.
.	.	4B\	.	4d\	.
=6.	=6.	=6.	=6.	=6.	=6.
2AA/	2E/	2A/	0r	2c\	0r
2BB/	2D/	2G/	.	1d	.
1AA	1E	1A	.	.	.
.	.	.	.	2c#i\	.
=7	=7	=7	=7	=7	=7
1r	2D/	1r	1r	0d	0r
.	2D/	.	.	.	.
1D	2D/	1A	1d	.	.
.	4E/	.	.	.	.
.	4F/	.	.	.	.
=8.	=8.	=8.	=8.	=8.	=8.
2GG/	4G/	2G/	1.d	0r	0r
.	4A/	.	.	.	.
2.D\	2.B\	2F/	.	.	.
.	.	[1D	.	.	.
4C/	4A/	.	.	.	.
4BB/	[2G/	.	2c\	.	.
4AA/	.	.	.	.	.
=9	=9	=9	=9	=9	=9
2GG/	2G/]	2D/]	2B\	1r	0r
2AA/	2F/	2C/	2A/	.	.
1GG	1G	2D/	1B	1d	.
.	.	2G/	.	.	.
=10.	=10.	=10.	=10.	=10.	=10.
[0D	0D	2.F/	2A/	1d	1r
.	.	.	2A/	.	.
.	.	4G/	.	.	.
.	.	1A	2A/	1d	1a
.	.	.	4B\	.	.
.	.	.	4c\	.	.
=11	=11	=11	=11	=11	=11
0D]	0r	2D/	4d\	1d	1.a
.	.	.	4e\	.	.
.	.	2.A/	2.f\	.	.
.	.	.	.	[1A	.
.	.	4G/	4e\	.	.
.	.	4F/	[2d\	.	2g/
.	.	4E/	.	.	.
=12.	=12.	=12.	=12.	=12.	=12.
1r	0r	2D/	2d\]	2A/]	2f/
.	.	2E/	2c\	2G/	2e/
1A	.	1D	1d	2.A/	1f
.	.	.	.	4B\	.
=13	=13	=13	=13	=13	=13
1.A	0r	2r	0A	2c\	2e/
.	.	2A/	.	2A/	2e/
.	.	2.c\	.	1e	2e/
2G\	.	.	.	.	4f/
.	.	4B\	.	.	4g/
=14.	=14.	=14.	=14.	=14.	=14.
2F\	0r	2A/	0r	2d\	4a/
.	.	.	.	.	4b\
2E\	.	2G/	.	2c\	2.cc\
1F	.	1A	.	1d	.
.	.	.	.	.	4b\
.	.	.	.	.	[2a/
=15	=15	=15	=15	=15	=15
1E	0r	1B	0r	0e	2a/]
.	.	.	.	.	2g#i/
1AA	.	1A	.	.	1a
=16.	=16.	=16.	=16.	=16.	=16.
2r	1r	2r	0r	1r	0e
2E\	.	2G/	.	.	.
2E\	1G	2G/	.	2r	.
[2G\	.	[2C/	.	2e\	.
=17	=17	=17	=17	=17	=17
4G\]	1.G	4C/]	0r	2e\	0r
4F\	.	4D/	.	.	.
4E\	.	4E/	.	2.g\	.
4D\	.	4F/	.	.	.
2C/	.	2E/	.	.	.
.	.	.	.	4f\	.
2D\	2F/	[2A/	.	4e\	.
.	.	.	.	4d\	.
=18.	=18.	=18.	=18.	=18.	=18.
2AA/	2E/	2A/]	0r	2c\	0r
2BB/	2D/	2G/	.	1d	.
1AA	1E	1A	.	.	.
.	.	.	.	2c#i\	.
=19	=19	=19	=19	=19	=19
1r	1D	1r	1r	0d	0r
1D	1F	1A	1d	.	.
=20.	=20.	=20.	=20.	=20.	=20.
2GG/	2G/	2G/	1.d	0r	0r
2.D\	2.B-i\	2F/	.	.	.
.	.	[1D	.	.	.
4C/	4A/	.	.	.	.
4BB/	[2G/	.	2c\	.	.
4AA/	.	.	.	.	.
=21	=21	=21	=21	=21	=21
2GG/	2G/]	2D/]	2B\	0r	0r
2AA/	2F/	2C/	2A/	.	.
1GG	2G/	2D/	1B	.	.
.	2E/	2G/	.	.	.
=22.	=22.	=22.	=22.	=22.	=22.
1D	2F/	2.F/	1A	1r	1r
.	2D/	.	.	.	.
.	.	4G/	.	.	.
1AA	1E	1A	1c	1e	1a
=23	=23	=23	=23	=23	=23
0r	0D	2r	2d\	2f\	1.a
.	.	2.A/	2.f\	2.d\	.
.	.	4G/	4e\	4c\	.
.	.	4F/	[2d\	4B\	2g/
.	.	4E/	.	4A/	.
=24.	=24.	=24.	=24.	=24.	=24.
0r	0r	2D/	2d\]	2A/	2f/
.	.	2E/	2c\	2G/	2e/
.	.	1D	2d\	2A/	1f
.	.	.	2B\	2d\	.
=25	=25	=25	=25	=25	=25
0r	0r	1A	2c\	2.c\	1e
.	.	.	2A/	.	.
.	.	.	.	4d\	.
.	.	1E	1B	1e	1g
=26.	=26.	=26.	=26.	=26.	=26.
0r	0r	0r	0A	2f\	2a/
.	.	.	.	2.e\	2.cc\
.	.	.	.	4d\	4b\
.	.	.	.	2c\	[2a/
=27	=27	=27	=27	=27	=27
2r	0r	0r	0r	1B	2a/]
2E\	.	.	.	.	2g/
2.F\	.	.	.	2A/	2a/
.	.	.	.	[2d\	2f/
4D\	.	.	.	.	.
=28.	=28.	=28.	=28.	=28.	=28.
2E\	2r	0r	0r	4d\]	2g/
.	.	.	.	4c\	.
2C/	1G	.	.	1c	2e/
1D	.	.	.	.	1f
.	2F/	.	.	2B\	.
=29	=29	=29	=29	=29	=29
2C/	1G	2r	0r	2c\	0e
2GG/	.	2G/	.	2B\	.
1AA	2E/	2G/	.	2c\	.
.	2C/	2E/	.	[2c\	.
=30.	=30.	=30.	=30.	=30.	=30.
1GG	1D	1G	0r	2c\]	0r
.	.	.	.	2B\	.
2r	1C	1E	.	1c	.
2C/	.	.	.	.	.
=31	=31	=31	=31	=31	=31
2D\	1F	1D	2r	0r	0r
2F\	.	.	1d	.	.
1E	1G	2r	.	.	.
.	.	[2G/	2c\	.	.
=32.	=32.	=32.	=32.	=32.	=32.
1D	1A	2G/]	1d	2r	0r
.	.	2F/	.	1d	.
1E	2G/	2G/	2B\	.	.
.	[2G/	2E/	2G/	2c\	.
=33	=33	=33	=33	=33	=33
1D	2G/]	2F/	1A	2d\	0r
.	2F#i/	2D/	.	2d\	.
1GG	1G	2r	1G	1B	.
.	.	2G/	.	.	.
=34.	=34.	=34.	=34.	=34.	=34.
0r	0r	2A/	1c	1A	2r
.	.	2c\	.	.	1a
.	.	1B	1d	2r	.
.	.	.	.	[2d\	2g/
=35	=35	=35	=35	=35	=35
0r	0r	1A	1e	2d\]	1a
.	.	.	.	2c\	.
.	.	1B	2d\	2d\	2f/
.	.	.	[2d\	2B\	2d/
=36.	=36.	=36.	=36.	=36.	=36.
1r	1r	1A	2d\]	2c\	1e
.	.	.	2c#i\	2A/	.
2.GG/	[1G	1D	1d	2.B\	1d
4AA/	.	.	.	4c\	.
=37	=37	=37	=37	=37	=37
2BB/	2G/]	0r	0r	2d\	1g
2C/	2E/	.	.	2e\	.
1AA	1F	.	.	1c	1a
=38.	=38.	=38.	=38.	=38.	=38.
1GG	1G	0r	0r	2B\	1b
.	.	.	.	2.d\	.
1D	2A/	.	.	.	2a/
.	.	.	.	4c\	.
.	[2F/	.	.	4B\	[2a/
.	.	.	.	4A/	.
=39	=39	=39	=39	=39	=39
0r	2F/]	1r	1r	1B	2a/]
.	2E/	.	.	.	2g#i/
.	2.F/	2.D/	[1d	1A	1a
.	4G/	4E/	.	.	.
=40.	=40.	=40.	=40.	=40.	=40.
0r	2A/	2F/	2d\]	0r	0r
.	2B\	2G/	2B\	.	.
.	1G	1E	1c	.	.
=41	=41	=41	=41	=41	=41
2r	1A	1D	1d	0r	0r
2D\	.	.	.	.	.
2C/	1r	2A/	2e\	.	.
2AA/	.	[2A/	[2c\	.	.
=42.	=42.	=42.	=42.	=42.	=42.
1E	0r	2A/]	2c\]	1r	1r
.	.	2G#i/	2B\	.	.
1AA	.	1A	2.c\	2.A/	[1a
.	.	.	4d\	4B\	.
=43	=43	=43	=43	=43	=43
0r	0r	0r	2e\	2c\	2a/]
.	.	.	2f\	2d\	2f/
.	.	.	1d	1B	1g
=44.	=44.	=44.	=44.	=44.	=44.
1AA	0r	2E/	1e	1A	1a
.	.	2F/	.	.	.
1GG	.	1G	1r	1d	2b\
.	.	.	.	.	[2g/
=45	=45	=45	=45	=45	=45
1D	1r	1A	0r	2.d\	2g/]
.	.	.	.	.	2f/
.	.	.	.	4c\	.
2GG/	[1G	2G/	.	2d\	2.g/
2C/	.	2C/	.	2e\	.
.	.	.	.	.	4a/
=46.	=46.	=46.	=46.	=46.	=46.
2GG/	2G/]	1G	0r	2d\	2b\
2C/	2E/	.	.	2e\	2cc\
1D	1F	[1D	.	1d	1a
=47	=47	=47	=47	=47	=47
1GG	1G	1D]	0r	1d	1b
2D\	2A/	1r	.	2r	1r
[2D\	[2F/	.	.	2A/	.
=48.	=48.	=48.	=48.	=48.	=48.
2D\]	2F/]	1r	1r	2B\	0r
2C/	2E/	.	.	2c\	.
1D	2.F/	2.D/	[1d	1A	.
.	4G/	4E/	.	.	.
=49	=49	=49	=49	=49	=49
0r	2A/	2F/	2d\]	2A/	0r
.	2B\	2G/	2B\	1G	.
.	1G	1E	1c	.	.
.	.	.	.	2E/	.
=50.	=50.	=50.	=50.	=50.	=50.
2r	0A	1D	1d	1F	0r
2D\	.	.	.	.	.
2C/	.	2A/	2e\	[1E	.
2AA/	.	[2A/	[2c\	.	.
=51	=51	=51	=51	=51	=51
1E	1r	2A/]	2c\]	0E]	1r
.	.	2G#i/	2B\	.	.
1AA	[1c	1A	2.c\	.	[1a
.	.	.	4d\	.	.
=52.	=52.	=52.	=52.	=52.	=52.
0r	2c\]	0r	2e\	0r	2a/]
.	2A/	.	2f\	.	2f/
.	1B	.	1d	.	1g
=53	=53	=53	=53	=53	=53
1AA	1A	2E/	0e	1r	1a
.	.	2F/	.	.	.
[1E	[1G	2G/	.	1B	2b\
.	.	[2E/	.	.	[2g/
=54.	=54.	=54.	=54.	=54.	=54.
2E\]	2G/]	2E/]	1r	1.B	2g/]
2D\	2A/	2F/	.	.	2f/
2GG/	2B\	2D/	[1g	.	2.g/
2C/	[2G/	2C/	.	2c\	.
.	.	.	.	.	4a/
=55	=55	=55	=55	=55	=55
2GG/	2G/]	2G/	2g\]	2d\	2b\
2C/	2A/	2C/	2e\	2A/	2cc\
1D	2.F/	1F	1f	1d	1a
.	4G/	.	.	.	.
=56.	=56.	=56.	=56.	=56.	=56.
0GG	1G	1r	1e	1.B	0b
.	1r	1D	[1d	.	.
.	.	.	.	4A/	.
.	.	.	.	4G/	.
=57	=57	=57	=57	=57	=57
0r	0r	2.G/	2d\]	4B\	1r
.	.	.	.	4A/	.
.	.	.	2e\	4B\	.
.	.	4F/	.	4c\	.
.	.	2D/	2f\	4d\	[1dd
.	.	.	.	4c\	.
.	.	2G/	[2d\	4B\	.
.	.	.	.	4A/	.
=58.	=58.	=58.	=58.	=58.	=58.
0r	0r	2.B\	2d\]	2G/	2dd\]
.	.	.	2e\	1g	2b\
.	.	4c\	.	.	.
.	.	1A	2.c\	.	1cc
.	.	.	.	2f#i\	.
.	.	.	4d\	.	.
=59	=59	=59	=59	=59	=59
0r	0r	1G	1d	1g	1b
.	.	1D	1r	2r	[1a
.	.	.	.	[2f\	.
=60.	=60.	=60.	=60.	=60.	=60.
0r	1r	2F/	0r	2f\]	2a/]
.	.	2G/	.	4e\	2b\
.	.	.	.	4d\	.
.	[1c	1A	.	2.c\	2cc\
.	.	.	.	.	[2a/
.	.	.	.	4d\	.
=61	=61	=61	=61	=61	=61
0r	2c\]	0r	0r	2e\	2a/]
.	4B\	.	.	2f\	2b\
.	4A/	.	.	.	.
.	1B	.	.	1d	2.g/
.	.	.	.	.	4a/
=62.	=62.	=62.	=62.	=62.	=62.
1AA	1A	0r	0r	2e\	1a
.	.	.	.	2c\	.
2.C/	[1G	.	.	2e\	1r
.	.	.	.	2f\	.
4D\	.	.	.	.	.
=63	=63	=63	=63	=63	=63
2E\	2G/]	0r	1r	2.g\	0r
2F\	2A/	.	.	.	.
.	.	.	.	4f\	.
2.G\	2B\	.	[1g	2e\	.
.	[2G/	.	.	[2d\	.
4F\	.	.	.	.	.
=64.	=64.	=64.	=64.	=64.	=64.
2E\	2G/]	0r	2g\]	4d\]	0r
.	.	.	.	4c\	.
2C/	2A/	.	4f\	1c	.
.	.	.	4e\	.	.
1D	2.F/	.	1f	.	.
.	.	.	.	2B\	.
.	4G/	.	.	.	.
=65	=65	=65	=65	=65	=65
1C	0G	1E	1e	1c	0r
1GG	.	2.G/	[1d	2r	.
.	.	.	.	[2g\	.
.	.	4A/	.	.	.
=66.	=66.	=66.	=66.	=66.	=66.
0r	0r	2B\	2d\]	2g\]	1r
.	.	2c\	2e\	4f\	.
.	.	.	.	4e\	.
.	.	2.d\	2f\	4d\	[1dd
.	.	.	.	4c\	.
.	.	.	[2d\	4d\	.
.	.	4c\	.	4e\	.
=67	=67	=67	=67	=67	=67
0r	0r	2B\	2d\]	2f\	2dd\]
.	.	2G/	2e\	1g	4cc\
.	.	.	.	.	4b\
.	.	1A	2.c\	.	1cc
.	.	.	.	2f#i\	.
.	.	.	4d\	.	.
=68.	=68.	=68.	=68.	=68.	=68.
0r	0r	1G	0d	1g	1b
.	.	1D	.	2f\	[1a
.	.	.	.	[2f\	.
=69	=69	=69	=69	=69	=69
0r	0r	2F/	0r	2f\]	2a/]
.	.	2G/	.	4e\	2b\
.	.	.	.	4d\	.
.	.	2.A/	.	2.c\	2cc\
.	.	.	.	.	[2a/
.	.	4B\	.	4d\	.
=70.	=70.	=70.	=70.	=70.	=70.
0r	0r	2c\	0r	2e\	2a/]
.	.	2d\	.	2f\	2b\
.	.	1B	.	1d	2.g/
.	.	.	.	.	4a/
=71	=71	=71	=71	=71	=71
1AA	1.c	1A	0r	0e	0a
2.C/	.	2.E/	.	.	.
.	2c\	.	.	.	.
4D\	.	4F/	.	.	.
=72.	=72.	=72.	=72.	=72.	=72.
2E\	1c	2G/	0r	0r	0r
1F	.	1A	.	.	.
.	1c	.	.	.	.
2E\	.	[2G/	.	.	.
=73	=73	=73	=73	=73	=73
2.C/	1A	4G/]	0r	1r	0r
.	.	4F/	.	.	.
.	.	4E/	.	.	.
4BB/	.	4D/	.	.	.
1AA	1F	1C	.	1A	.
=74.	=74.	=74.	=74.	=74.	=74.
[0GG	1G	2D/	1.g	2B\	0r
.	.	2E/	.	2G/	.
.	2.G/	2D/	.	2.B\	.
.	.	[2G/	2g\	.	.
.	4A/	.	.	4c\	.
=75	=75	=75	=75	=75	=75
0GG]	2B\	4G/]	1g	2d\	0r
.	.	4F/	.	.	.
.	1c	2E/	.	1G	.
.	.	1D	1g	.	.
.	2B\	.	.	2d\	.
=76.	=76.	=76.	=76.	=76.	=76.
0r	4c\	1C	1e	2e\	0r
.	4B\	.	.	.	.
.	4A/	.	.	1g	.
.	4G/	.	.	.	.
.	1A	1r	1c	.	.
.	.	.	.	2f#i\	.
=77	=77	=77	=77	=77	=77
1GG	0G	0r	1d	1g	1.dd
4GG/	.	.	2.d\	[1d	.
4AA/	.	.	.	.	.
4BB/	.	.	.	.	2dd\
4C/	.	.	4e\	.	.
=78.	=78.	=78.	=78.	=78.	=78.
2D\	0r	0r	2f\	1d]	1dd
2GG/	.	.	1g	.	.
1D	.	.	.	1d	1dd
.	.	.	2f\	.	.
=79	=79	=79	=79	=79	=79
0GG	0r	1r	4g\	1r	1b
.	.	.	4f\	.	.
.	.	.	4e\	.	.
.	.	.	4d\	.	.
.	.	1G	1e	1g	1g
=80.	=80.	=80.	=80.	=80.	=80.
0r	0r	1D	0d	2.f\	1a
.	.	.	.	4e\	.
.	.	4D/	.	2d\	2.a/
.	.	4E/	.	.	.
.	.	4F/	.	4c\	.
.	.	4G/	.	4B\	4b\
=81	=81	=81	=81	=81	=81
0r	0r	2A/	0r	0A	2cc\
.	.	2D/	.	.	1dd
.	.	1A	.	.	.
.	.	.	.	.	2cc\
=82.	=82.	=82.	=82.	=82.	=82.
1r	0r	0D	0r	1r	4dd\
.	.	.	.	.	4cc\
.	.	.	.	.	4b\
.	.	.	.	.	4a/
1GG	.	.	.	1g	1b
=83	=83	=83	=83	=83	=83
1D	0r	0r	0r	2.f\	0a
.	.	.	.	4e\	.
2.D\	.	.	.	2d\	.
.	.	.	.	4c\	.
4E\	.	.	.	4B\	.
=84.	=84.	=84.	=84.	=84.	=84.
2F\	1r	0r	0r	2A/	0r
1G	.	.	.	2G/	.
.	1c	.	.	1A	.
2F\	.	.	.	.	.
=85	=85	=85	=85	=85	=85
2G\	2B\	0r	0r	1G	0r
2GG/	1G	.	.	.	.
1AA	.	.	.	2.c\	.
.	2F#i/	.	.	.	.
.	.	.	.	4A/	.
=86.	=86.	=86.	=86.	=86.	=86.
0GG	2G/	1r	0r	2B\	0r
.	2E/	.	.	1c	.
.	1D	1G	.	.	.
.	.	.	.	2B\	.
=87	=87	=87	=87	=87	=87
0r	0C	2E/	1r	0c	0r
.	.	1E	.	.	.
.	.	.	1g	.	.
.	.	2C/	.	.	.
=88.	=88.	=88.	=88.	=88.	=88.
1r	2r	2D/	2f\	0r	0r
.	2F/	2F/	1d	.	.
2r	2G/	1E	.	.	.
2AA/	2A/	.	2c\	.	.
=89	=89	=89	=89	=89	=89
2D\	2B-i\	0D	2d\	1r	0r
2GG/	1G	.	2B\	.	.
2D\	.	.	1A	1d	.
2D\	2F/	.	.	.	.
=90.	=90.	=90.	=90.	=90.	=90.
0GG	2G/	0r	0G	2B\	1r
.	2E/	.	.	1B	.
.	1D	.	.	.	1dd
.	.	.	.	2G/	.
=91	=91	=91	=91	=91	=91
0r	0r	1r	2r	2A/	2cc\
.	.	.	2c\	2c\	1a
.	.	2r	2d\	1B	.
.	.	2E/	2e\	.	2g/
=92.	=92.	=92.	=92.	=92.	=92.
1r	2r	2A/	2f\	1A	2a/
.	2F/	2D/	1d	.	2f/
2r	2G/	1E	.	1r	1e
2AA/	2A/	.	2c\	.	.
=93	=93	=93	=93	=93	=93
2D\	2B-i\	0r	2d\	1r	0d
2GG/	1G	.	2B\	.	.
2D\	.	.	1A	1d	.
2D\	2F/	.	.	.	.
=94.	=94.	=94.	=94.	=94.	=94.
1GG	2G/	0r	0r	2B\	2r
.	2E/	.	.	1B	2g/
1r	1D	.	.	.	2a/
.	.	.	.	4A/	2b\
.	.	.	.	4G/	.
=95	=95	=95	=95	=95	=95
0r	1C	1r	2r	4A/	2cc\
.	.	.	.	4G/	.
.	.	.	2c\	2c\	1a
.	1r	2r	2d\	1B	.
.	.	2E/	2e\	.	2g/
=96.	=96.	=96.	=96.	=96.	=96.
1r	2r	2A/	2f\	1A	2a/
.	2F/	2D/	1d	.	2f/
2r	2G/	2E/	.	1r	1e
2AA/	2A/	2E/	2c\	.	.
=97	=97	=97	=97	=97	=97
2D\	2B-i\	0D	2d\	0r	0r
2GG/	1G	.	2B\	.	.
2D\	.	.	1A	.	.
2D\	2F/	.	.	.	.
=98.	=98.	=98.	=98.	=98.	=98.
1GG	2G/	1D	1G	0r	2r
.	2E/	.	.	.	2g/
1D	1D	1F	1r	.	2a/
.	.	.	.	.	2b\
=99	=99	=99	=99	=99	=99
1AA	1C	1E	2r	0r	2cc\
.	.	.	2c\	.	1a
1r	1r	2r	2d\	.	.
.	.	2E/	2e\	.	2g/
=100.	=100.	=100.	=100.	=100.	=100.
0r	0r	2A/	2f\	0r	2a/
.	.	2D/	1d	.	2f/
.	.	2A/	.	.	1e
.	.	2A/	2c\	.	.
=101	=101	=101	=101	=101	=101
0r	0r	0D	2d\	1r	1d
.	.	.	2B\	.	.
.	.	.	1A	1d	1r
=102.	=102.	=102.	=102.	=102.	=102.
0r	0r	0r	1G	2B\	2r
.	.	.	.	1B	2g/
.	.	.	1r	.	2a/
.	.	.	.	2G/	2b\
=103	=103	=103	=103	=103	=103
0r	0r	2r	0r	2A/	2cc\
.	.	1F	.	2c\	1a
.	.	.	.	2d\	.
.	.	2E/	.	2e\	2g/
=104.	=104.	=104.	=104.	=104.	=104.
0r	0r	2D/	0r	2f\	2a/
.	.	2F/	.	2.d\	2f/
.	.	2G/	.	.	1e
.	.	.	.	4c#i\	.
.	.	2A/	.	2c#i\	.
=105	=105	=105	=105	=105	=105
1.D	1F	1B-i	0r	2d\	1d
.	.	.	.	2d\	.
.	1F	[1A	.	2d\	1r
2D\	.	.	.	[2f\	.
=106.	=106.	=106.	=106.	=106.	=106.
1D	2F/	1A]	0r	4f\]	0r
.	.	.	.	4e\	.
.	2F/	.	.	4d\	.
.	.	.	.	4c\	.
1D	1F	[1A	.	1d	.
=107	=107	=107	=107	=107	=107
1.AA	1E	2A/]	0r	[0e	0r
.	.	2A/	.	.	.
.	[1E	1A	.	.	.
2BB/	.	.	.	.	.
=108.	=108.	=108.	=108.	=108.	=108.
2.C/	2E/]	1.G	1c	0e]	0r
.	2F/	.	.	.	.
4D\	.	.	.	.	.
1E	1G	.	1c	.	.
.	.	2E/	.	.	.
=109	=109	=109	=109	=109	=109
1AA	1A	1E	2c\	0r	0r
.	.	.	2c\	.	.
1FF	1A	1F	1c	.	.
=110.	=110.	=110.	=110.	=110.	=110.
0GG	2.G/	1D	1B	0r	0r
.	4F/	.	.	.	.
.	2E/	[1G	[1B	.	.
.	[2D/	.	.	.	.
=111	=111	=111	=111	=111	=111
0GG	2D/]	1G]	2B\]	0r	1g
.	1C	.	2c\	.	.
.	.	1G	1d	.	1g
.	2BB/	.	.	.	.
=112.	=112.	=112.	=112.	=112.	=112.
1r	0C	1G	1e	0r	2g/
.	.	.	.	.	2g/
1C	.	2E/	1e	.	1g
.	.	2E/	.	.	.
=113	=113	=113	=113	=113	=113
1D	0r	2.A/	2.d\	0r	1f
.	.	4G/	4c\	.	.
2D\	.	4F/	2B\	.	[1f
.	.	4E/	.	.	.
[2D\	.	[2F/	[2A/	.	.
=114.	=114.	=114.	=114.	=114.	=114.
4D\]	0r	4F/]	2A/]	0r	2f/]
4C/	.	4E/	.	.	.
2BB/	.	1D	1G	.	2g/
1AA	.	.	.	.	1a
.	.	2C/	2F#i/	.	.
=115	=115	=115	=115	=115	=115
0GG	0r	1D	0G	1d	1b
.	.	1G	.	2B\	1b
.	.	.	.	2B\	.
=116.	=116.	=116.	=116.	=116.	=116.
0r	0r	1A	0r	2.e\	2.a/
.	.	.	.	4d\	4g/
.	.	2A/	.	4c\	2f/
.	.	.	.	4B\	.
.	.	[2A/	.	[2c\	[2e/
=117	=117	=117	=117	=117	=117
0r	0r	4A/]	0r	4c\]	2e/]
.	.	4G/	.	4B\	.
.	.	2F/	.	1A	1d
.	.	1E	.	.	.
.	.	.	.	2G/	2c#i/
=118.	=118.	=118.	=118.	=118.	=118.
1.D	1F	1D	0r	2A/	0d
.	.	.	.	2d\	.
.	1F	[1A	.	2d\	.
2D\	.	.	.	[2f\	.
=119	=119	=119	=119	=119	=119
1D	2F/	1A]	0r	4f\]	0r
.	.	.	.	4e\	.
.	2F/	.	.	4d\	.
.	.	.	.	4c\	.
1D	1F	1A	.	1d	.
=120.	=120.	=120.	=120.	=120.	=120.
1.AA	1E	1A	0r	[0e	0r
.	[1E	1A	.	.	.
2BB/	.	.	.	.	.
=121	=121	=121	=121	=121	=121
2.C/	2E/]	1.G	1c	0e]	0r
.	2F/	.	.	.	.
4D\	.	.	.	.	.
1E	1G	.	1c	.	.
.	.	2E/	.	.	.
=122.	=122.	=122.	=122.	=122.	=122.
1AA	1A	1E	2c\	0r	0r
.	.	.	2c\	.	.
1FF	1A	1F	1c	.	.
=123	=123	=123	=123	=123	=123
0GG	2.G/	1D	1B	0r	0r
.	4F/	.	.	.	.
.	2E/	[1G	[1B	.	.
.	[2D/	.	.	.	.
=124.	=124.	=124.	=124.	=124.	=124.
0GG	2D/]	1G]	2B\]	0r	1g
.	1C	.	2c\	.	.
.	.	1G	1d	.	1g
.	2BB/	.	.	.	.
=125	=125	=125	=125	=125	=125
1r	0Cl	1G	1e	0r	2g/
.	.	.	.	.	2g/
1C	.	2E/	1e	.	1g
.	.	2E/	.	.	.
=126.	=126.	=126.	=126.	=126.	=126.
1D	0r	2.A/	2.d\	0r	1f
.	.	4G/	4c\	.	.
2D\	.	4F/	2B\	.	[1f
.	.	4E/	.	.	.
[2D\	.	[2F/	[2A/	.	.
=127	=127	=127	=127	=127	=127
4D\]	0r	4F/]	2A/]	0r	2f/]
4C/	.	4E/	.	.	.
2BB/	.	1D	1G	.	2g/
1AA	.	.	.	.	1a
.	.	2C/	2F#i/	.	.
=128.	=128.	=128.	=128.	=128.	=128.
0GG	0r	1D	0Gl	1d	1b
.	.	1G	.	2B\	1b
.	.	.	.	2B\	.
=129	=129	=129	=129	=129	=129
2r	0r	1A	0r	2.e\	2.a/
2C/	.	.	.	.	.
.	.	.	.	4d\	4g/
2D\	.	2A/	.	4c\	2f/
.	.	.	.	4B\	.
2C/	.	[2A/	.	[2c\	[2e/
=130.	=130.	=130.	=130.	=130.	=130.
1D	0r	4A/]	0r	4c\]	2e/]
.	.	4G/	.	4B\	.
.	.	2F/	.	4A/	1d
.	.	.	.	4G/	.
1AA	.	1E	.	1A	.
.	.	.	.	.	2c#i/
=131	=131	=131	=131	=131	=131
0DDl	0r	0Dl	0r	0Al	0dl
!!LO:LB:i:g=z
=132||	=132||	=132||	=132||	=132||	=132||
*>B	*>B	*>B	*>B	*>B	*>B
*clefF4	*clefGv2	*clefGv2	*clefGv2	*clefGv2	*clefG2
*k[]	*k[]	*k[]	*k[]	*k[]	*k[]
*M2/1	*M2/1	*M2/1	*M2/1	*M2/1	*M2/1
*met(C2)	*met(C2)	*met(C2)	*met(C2)	*met(C2)	*met(C2)
!!section: Benedicamus patrem
!!!OMD: Benedicamus patrem
1r	1D	0r	0r	0r	0r
1D	2D/	.	.	.	.
.	2D/	.	.	.	.
=133.	=133.	=133.	=133.	=133.	=133.
2C/	2.E/	0r	0r	0r	0r
2AA/	.	.	.	.	.
.	4F/	.	.	.	.
2BB/	2G/	.	.	.	.
2C/	[2A/	.	.	.	.
=134	=134	=134	=134	=134	=134
4C/	4A/]	1r	1A	0r	0r
4BB/	4G/	.	.	.	.
4AA/	2.G/	.	.	.	.
4GG/	.	.	.	.	.
1AA	.	1C	2A/	.	.
.	4F#i/	.	.	.	.
.	2F#i/	.	2A/	.	.
=135.	=135.	=135.	=135.	=135.	=135.
0GG	1G	2D/	2.B\	0r	0r
.	.	2E/	.	.	.
.	.	.	4c\	.	.
.	1r	2D/	2d\	.	.
.	.	2G/	[2e\	.	.
=136	=136	=136	=136	=136	=136
0r	0r	4G/	4e\]	1r	1e
.	.	4F/	4d\	.	.
.	.	4E/	2.d\	.	.
.	.	4D/	.	.	.
.	.	1E	.	1G	2e/
.	.	.	4c#i\	.	.
.	.	.	2c#i\	.	2e/
=137.	=137.	=137.	=137.	=137.	=137.
0r	0r	0D	1d	2A/	2.f/
.	.	.	.	2B\	.
.	.	.	.	.	4g/
.	.	.	1r	2A/	2a/
.	.	.	.	2d\	[2b\
=138	=138	=138	=138	=138	=138
1r	1D	0r	0r	4d\	4b\]
.	.	.	.	4c\	4a/
.	.	.	.	4B\	2.a/
.	.	.	.	4A/	.
1GG	2D/	.	.	1B	.
.	.	.	.	.	4g/
.	2D/	.	.	.	2g/
=139.	=139.	=139.	=139.	=139.	=139.
2C/	2.E/	0r	0r	1A	1a
2AA/	.	.	.	.	.
.	4F/	.	.	.	.
2BB/	2G/	.	.	1r	1r
2C/	[2A/	.	.	.	.
=140	=140	=140	=140	=140	=140
4C/	2A/]	1r	1A	0r	0r
4BB/	.	.	.	.	.
4AA/	2.G/	.	.	.	.
4GG/	.	.	.	.	.
1AA	.	1C	2A/	.	.
.	4F#i/	.	.	.	.
.	2F#i/	.	2A/	.	.
=141.	=141.	=141.	=141.	=141.	=141.
2.GG/	1G	2D/	2.B\	0r	0r
.	.	2E/	.	.	.
4AA/	.	.	4c\	.	.
2BB/	1G	2D/	2d\	.	.
[2C/	.	2G/	[2e\	.	.
=142	=142	=142	=142	=142	=142
4C/]	1E	2.G/	2e\]	1r	1e
4BB/	.	.	.	.	.
2GG/	.	.	2.d\	.	.
.	.	4F/	.	.	.
1AA	1E	2E/	.	1A	2e/
.	.	.	4c#i\	.	.
.	.	2C/	2c#i\	.	2e/
=143.	=143.	=143.	=143.	=143.	=143.
1D	1D	1.F	1d	2A/	2.f/
.	.	.	.	2B\	.
.	.	.	.	.	4g/
1r	1r	.	1d	2A/	2a/
.	.	2D/	.	[2d\	[2b\
=144	=144	=144	=144	=144	=144
0r	0r	2.G/	1B	4d\]	2b\]
.	.	.	.	4c\	.
.	.	.	.	2d\	2.a/
.	.	4E/	.	.	.
.	.	1E	1B	1e	.
.	.	.	.	.	4g#i/
.	.	.	.	.	2g#i/
=145.	=145.	=145.	=145.	=145.	=145.
0D	0F	1r	1A	1.f	1a
.	.	1A	1r	.	1a
.	.	.	.	2e\	.
=146	=146	=146	=146	=146	=146
1D	1F	2A/	0r	1.d	1f
.	.	2A/	.	.	.
1D	1F	2A/	.	.	1f
.	.	2A/	.	2c\	.
=147.	=147.	=147.	=147.	=147.	=147.
2.AA/	2.C/	2A/	0c	1c	1e
.	.	2.c\	.	.	.
4BB/	4D/	.	.	.	.
2C/	2E/	.	.	1r	1r
.	.	4B\	.	.	.
2FF/	[2F/	2A/	.	.	.
=148	=148	=148	=148	=148	=148
1C	2F/]	1G	1c	0r	0r
.	2E/	.	.	.	.
1FF	1F	1F	1c	.	.
=149.	=149.	=149.	=149.	=149.	=149.
1C	2E/	[0G	2.G/	2r	0g
.	2.G/	.	.	2e\	.
.	.	.	4A/	.	.
[1GG	.	.	2B\	2d\	.
.	4F/	.	.	.	.
.	2E/	.	[2c\	2c\	.
=150	=150	=150	=150	=150	=150
1GG]	1D	0G]	2c\]	1d	1g
.	.	.	2B\	.	.
1r	1C	.	1c	1e	1g
=151.	=151.	=151.	=151.	=151.	=151.
0r	0r	0r	2B\	2r	2.d/
.	.	.	2.d\	2.f\	.
.	.	.	.	.	4e/
.	.	.	.	.	2f/
.	.	.	4c\	4e\	.
.	.	.	2B\	[2d\	[2g/
=152	=152	=152	=152	=152	=152
0r	0r	1r	1A	2d\]	2g/]
.	.	.	.	2c\	2f#i/
.	.	1G	1G	2d\	1g
.	.	.	.	4B\	.
.	.	.	.	4c\	.
=153.	=153.	=153.	=153.	=153.	=153.
0r	0r	2D/	0r	4d\	2f/
.	.	.	.	4e\	.
.	.	2D/	.	2.f\	2.a/
.	.	4D/	.	.	.
.	.	4E/	.	4e\	4g/
.	.	4F/	.	[2d\	2f/
.	.	4G/	.	.	.
=154	=154	=154	=154	=154	=154
1r	1r	0A	0r	2d\]	1e
.	.	.	.	2c#i\	.
[1D	[1F	.	.	1d	1d
=155.	=155.	=155.	=155.	=155.	=155.
1D]	1F]	1A	0r	1d	0r
1D	1F	1A	.	1d	.
=156	=156	=156	=156	=156	=156
2.AA/	2.C/	2A/	1r	1e	0r
.	.	2.c\	.	.	.
4BB/	4D/	.	.	.	.
2C/	2E/	.	[1c	1r	.
.	.	4B\	.	.	.
2FF/	[2F/	2A/	.	.	.
=157.	=157.	=157.	=157.	=157.	=157.
1C	2F/]	1G	1c]	0r	0r
.	2E/	.	.	.	.
1FF	1F	1F	1c	.	.
=158	=158	=158	=158	=158	=158
1C	2E/	[0G	2.G/	2r	1r
.	2.G/	.	.	2e\	.
.	.	.	4A/	.	.
[1GG	.	.	2B\	2d\	[1g
.	4F/	.	.	.	.
.	2E/	.	[2c\	2c\	.
=159.	=159.	=159.	=159.	=159.	=159.
1GG]	1D	0G]	2c\]	1d	1g]
.	.	.	2B\	.	.
1r	1C	.	1c	1e	1g
=160	=160	=160	=160	=160	=160
0r	1G	0r	2B\	2r	2.d/
.	.	.	2.d\	2B\	.
.	.	.	.	.	4e/
.	2A/	.	.	2c\	2f/
.	.	.	4c\	.	.
.	2B\	.	2B\	2d\	[2g/
=161.	=161.	=161.	=161.	=161.	=161.
0r	1c	0r	1A	2e\	2g/]
.	.	.	.	2c\	2f#i/
.	1B	.	1G	[1d	1g
=162	=162	=162	=162	=162	=162
0r	0r	0r	1d	2d\]	2f/
.	.	.	.	2f\	2.a/
.	.	.	2e\	2e\	.
.	.	.	.	.	4g/
.	.	.	2f\	[2d\	2f/
=163.	=163.	=163.	=163.	=163.	=163.
1r	0r	1r	1g	2d\]	1e
.	.	.	.	2c#i\	.
2r	.	2r	1f	2.d\	1d
[2D\	.	[2F/	.	.	.
.	.	.	.	4c\	.
=164	=164	=164	=164	=164	=164
2D\]	0r	2F/]	0r	4A/	1a
.	.	.	.	4B\	.
2C/	.	2E/	.	2c\	.
2D\	.	2F/	.	2B\	2b\
2AA/	.	2E/	.	[2A/	2cc\
=165.	=165.	=165.	=165.	=165.	=165.
1BB	0r	4D/	0r	2A/]	1dd
.	.	4C/	.	.	.
.	.	2D/	.	2G#i/	.
2AA/	.	2E/	.	[1A	1cc
2AA/	.	2E/	.	.	.
=166	=166	=166	=166	=166	=166
2AA/	1r	2E/	0r	1A]	0r
2AA/	.	2C/	.	.	.
4AA/	1c	4C/	.	1r	.
4BB/	.	4D/	.	.	.
4C/	.	4E/	.	.	.
4D\	.	4F/	.	.	.
=167.	=167.	=167.	=167.	=167.	=167.
2E\	2c\	2G/	0r	1r	0r
2F\	2A/	2A/	.	.	.
1D	1B	1F	.	1d	.
=168	=168	=168	=168	=168	=168
2C/	2c\	0G	1r	2e\	0r
2C/	2c\	.	.	2.e\	.
4C/	2.G/	.	1g	.	.
4D\	.	.	.	4d\	.
4E\	.	.	.	2c\	.
4F\	4A/	.	.	.	.
=169.	=169.	=169.	=169.	=169.	=169.
2G\	2B\	0r	2g\	2B\	0r
2C/	2c\	.	2e\	2e\	.
2D\	1A	.	1f	1d	.
2D\	.	.	.	.	.
=170	=170	=170	=170	=170	=170
0GG	1G	2r	2g\	0B	1r
.	.	2G/	2g\	.	.
.	1r	4G/	2.d\	.	1dd
.	.	4A/	.	.	.
.	.	4B\	.	.	.
.	.	4c\	4e\	.	.
=171.	=171.	=171.	=171.	=171.	=171.
0r	0r	2d\	2f\	1r	2dd\
.	.	2G/	2g\	.	2b\
.	.	2A/	1e	2r	1cc
.	.	2A/	.	2e\	.
=172	=172	=172	=172	=172	=172
2r	1r	1D	1d	2f\	2dd\
2D\	.	.	.	1f	2dd\
2.F\	1c	1r	1r	.	2.a/
.	.	.	.	4e\	.
4G\	.	.	.	4d\	4b\
=173.	=173.	=173.	=173.	=173.	=173.
2A\	2c\	0r	0r	2c\	2cc\
2F\	2A/	.	.	1f	2dd\
1G	1B	.	.	.	1b
.	.	.	.	2e\	.
=174	=174	=174	=174	=174	=174
2F\	2c\	0r	1r	1f	1a
2FF/	2c\	.	.	.	.
4C/	2.G/	.	1g	1e	1r
4D\	.	.	.	.	.
4E\	.	.	.	.	.
4F\	4A/	.	.	.	.
=175.	=175.	=175.	=175.	=175.	=175.
2G\	2B\	0r	2g\	2d\	0r
2C/	2c\	.	2e\	2e\	.
2D\	1A	.	1f	1d	.
2D\	.	.	.	.	.
=176	=176	=176	=176	=176	=176
0GG	1G	0r	2g\	1B	1r
.	.	.	2g\	.	.
.	[1B	.	2.d\	1G	1dd
.	.	.	4e\	.	.
=177.	=177.	=177.	=177.	=177.	=177.
0r	2B\]	0r	2f\	0r	2dd\
.	2G/	.	2g\	.	2b\
.	1A	.	1e	.	1cc
=178	=178	=178	=178	=178	=178
0r	2r	0r	1d	0r	2dd\
.	2.D/	.	.	.	2dd\
.	.	.	[1f	.	2.a/
.	4E/	.	.	.	.
.	4F/	.	.	.	.
.	4G/	.	.	.	4b\
=179.	=179.	=179.	=179.	=179.	=179.
0r	2A/	0r	2f\]	0r	2cc\
.	2B-i\	.	2d\	.	2dd\
.	1G	.	1e	.	1b
=180	=180	=180	=180	=180	=180
0r	0F	2r	2r	0r	1a
.	.	2F/	2.A/	.	.
.	.	4F/	.	.	[1cc
.	.	4G/	4B\	.	.
.	.	4A/	4c\	.	.
.	.	4B\	4d\	.	.
=181.	=181.	=181.	=181.	=181.	=181.
0r	0r	2c\	2e\	1r	2cc\]
.	.	2F/	2f\	.	2a/
.	.	2G/	1d	1g	1b
.	.	2G/	.	.	.
=182	=182	=182	=182	=182	=182
2r	0r	4C/	0c	2e\	2r
.	.	4D/	.	.	.
2.C/	.	4E/	.	2.g\	2.e/
.	.	4F/	.	.	.
.	.	[1G	.	.	.
4D\	.	.	.	4f\	4f/
4E\	.	.	.	[2e\	4g/
4F\	.	.	.	.	4a/
=183.	=183.	=183.	=183.	=183.	=183.
2G\	0r	2G/]	0r	2e\]	2b\
2A\	.	2F/	.	4d\	2cc\
.	.	.	.	4c\	.
1F	.	1A	.	1d	1a
=184	=184	=184	=184	=184	=184
2E\	0r	2B\	0r	2e\	0g
2.C/	.	1c	.	2g\	.
.	.	.	.	2e\	.
4D\	.	.	.	.	.
4E\	.	[2B\	.	[2g\	.
4F\	.	.	.	.	.
=185.	=185.	=185.	=185.	=185.	=185.
2G\	0r	2B\]	0r	4g\]	0r
.	.	.	.	4f\	.
2A\	.	4A/	.	1e	.
.	.	4G/	.	.	.
1F	.	1A	.	.	.
.	.	.	.	2d\	.
=186	=186	=186	=186	=186	=186
0E	1.G	0B	0r	0e	0r
.	2G/	.	.	.	.
=187.	=187.	=187.	=187.	=187.	=187.
2.C/	2.G/	2c\	0r	0r	0r
.	.	1c	.	.	.
4D\	4F/	.	.	.	.
4E\	4G/	.	.	.	.
4F\	4A/	.	.	.	.
[2G\	[2B\	2B\	.	.	.
=188	=188	=188	=188	=188	=188
4G\]	4B\]	2G/	1.d	0r	0r
4F\	4A/	.	.	.	.
2G\	1G	2B\	.	.	.
1D	.	1A	.	.	.
.	2F#i/	.	2d\	.	.
=189.	=189.	=189.	=189.	=189.	=189.
2.GG/	2G/	1G	2.d\	0r	0r
.	1G	.	.	.	.
4AA/	.	.	4c\	.	.
4BB/	.	1r	4d\	.	.
4C/	.	.	4e\	.	.
[2D\	2F/	.	[2f\	.	.
=190	=190	=190	=190	=190	=190
4D\]	2D/	0r	4f\]	1r	1.a
4C/	.	.	4e\	.	.
2D\	2F/	.	1d	.	.
1AA	1E	.	.	1e	.
.	.	.	2c#i\	.	2a/
=191.	=191.	=191.	=191.	=191.	=191.
0r	1D	2.D/	2d\	1.f	2.a/
.	.	.	1d	.	.
.	.	4E/	.	.	4g/
.	1r	4F/	.	.	4a/
.	.	4G/	.	.	4b\
.	.	[2A/	2c\	2e\	[2cc\
=192	=192	=192	=192	=192	=192
1r	0r	4A/]	2A/	2.c\	4cc\]
.	.	4G/	.	.	4b\
.	.	2A/	2c\	.	1a
.	.	.	.	4d\	.
2r	.	1E	1B	1e	.
2E\	.	.	.	.	2g#i/
=193.	=193.	=193.	=193.	=193.	=193.
2F\	0r	2r	1A	2c\	2a/
1F	.	2A/	.	4f\	1a
.	.	.	.	4e\	.
.	.	2F/	1r	4d\	.
.	.	.	.	4c\	.
2E\	.	[2G/	.	[2e\	2g/
=194	=194	=194	=194	=194	=194
2C/	0r	2G/]	0r	4e\]	2e/
.	.	.	.	4d\	.
2E\	.	2E/	.	1c	2g/
1D	.	1F	.	.	1f
.	.	.	.	2B\	.
=195.	=195.	=195.	=195.	=195.	=195.
0C	1.G	2.G/	0r	0c	1e
.	.	4E/	.	.	.
.	.	1E	.	.	1r
.	2G/	.	.	.	.
=196	=196	=196	=196	=196	=196
2.C/	2.G/	2c\	0r	0r	0r
.	.	1c	.	.	.
4D\	4F/	.	.	.	.
4E\	4G/	.	.	.	.
4F\	4A/	.	.	.	.
[2G\	[2B\	2B\	.	.	.
=197.	=197.	=197.	=197.	=197.	=197.
4G\]	4B\]	2G/	1.d	0r	0r
4F\	4A/	.	.	.	.
2G\	1G	2B\	.	.	.
1D	.	1A	.	.	.
.	2F#i/	.	2d\	.	.
=198	=198	=198	=198	=198	=198
2.GG/	2G/	2G/	2.d\	0r	0r
.	1G	1B-i	.	.	.
4AA/	.	.	4c\	.	.
4BB/	.	.	4d\	.	.
4C/	.	.	4e\	.	.
[2D\	2F/	2A/	[2f\	.	.
=199.	=199.	=199.	=199.	=199.	=199.
4D\]	2D/	2.F/	4f\]	1r	1.a
4C/	.	.	4e\	.	.
2D\	2F/	.	1d	.	.
.	.	4G/	.	.	.
1AA	1E	1A	.	1e	.
.	.	.	2c#i\	.	2a/
=200	=200	=200	=200	=200	=200
0r	2.D/	0A	2d\	1.f	2.a/
.	.	.	1d	.	.
.	4E/	.	.	.	4g/
.	4F/	.	.	.	4a/
.	4G/	.	.	.	4b\
.	[2A/	.	2c\	2e\	[2cc\
=201.	=201.	=201.	=201.	=201.	=201.
0r	4A/]	0r	2A/	1c	4cc\]
.	4G/	.	.	.	4b\
.	1F	.	2c\	.	1a
.	.	.	1B	2d\	.
.	2E/	.	.	2e\	2g#i/
=202	=202	=202	=202	=202	=202
0r	2F/	0r	2.A/	2c\	2a/
.	1F	.	.	1A	1a
.	.	.	4B\	.	.
.	.	.	4c\	.	.
.	.	.	4d\	.	.
.	2E/	.	[2e\	2B\	2g/
=203.	=203.	=203.	=203.	=203.	=203.
0r	2C/	0r	4e\]	1c	2e/
.	.	.	4d\	.	.
.	2E/	.	1c	.	2g/
.	1D	.	.	1F	1f
.	.	.	2B\	.	.
=204	=204	=204	=204	=204	=204
2.C/	1C	0r	2c\	1G	2.e/
.	.	.	1c	.	.
4D\	.	.	.	.	4f/
4E\	1r	.	.	2.G/	4g/
4F\	.	.	.	.	4a/
[2G\	.	.	2B\	.	[2b\
.	.	.	.	4A/	.
=205.	=205.	=205.	=205.	=205.	=205.
4G\]	0r	0r	2G/	2.B\	4b\]
4F\	.	.	.	.	4a/
2G\	.	.	2B\	.	1g
.	.	.	.	4c\	.
1D	.	.	1A	1d	.
.	.	.	.	.	2f#i/
=206	=206	=206	=206	=206	=206
1GG	0r	2.G/	1G	2.B\	2g/
.	.	.	.	.	1g
.	.	4A/	.	4c\	.
1r	.	4B\	1r	4d\	.
.	.	4c\	.	4e\	.
.	.	[2d\	.	[2f\	2f/
=207.	=207.	=207.	=207.	=207.	=207.
0r	0r	4d\]	0r	4f\]	2d/
.	.	4c\	.	4e\	.
.	.	2d\	.	1d	2f/
.	.	1A	.	.	1e
.	.	.	.	2c#i\	.
=208	=208	=208	=208	=208	=208
2.GG/	0r	2D/	0r	2d\	1d
.	.	1G	.	4B\	.
4AA/	.	.	.	4c\	.
4BB/	.	.	.	4d\	1r
4C/	.	.	.	4e\	.
[2D\	.	2F/	.	[2f\	.
=209.	=209.	=209.	=209.	=209.	=209.
4D\]	0r	2D/	0r	4f\]	0r
4C/	.	.	.	4e\	.
2D\	.	2F/	.	1d	.
1AA	.	1E	.	.	.
.	.	.	.	2c#i\	.
=210	=210	=210	=210	=210	=210
2BB-i/	1r	2D/	0r	2d\	0r
2GG/	.	2G/	.	2d\	.
2GG/	1D	2G/	.	2d\	.
2GG/	.	2G/	.	[2d\	.
=211.	=211.	=211.	=211.	=211.	=211.
1.BB-	2D/	1.F	0r	2d\]	0r
.	1D	.	.	2d\	.
.	.	.	.	[1f	.
4AA/	2D/	2G/	.	.	.
4GG/	.	.	.	.	.
=212	=212	=212	=212	=212	=212
0FF	1.F	1.A	1r	2f\]	0r
.	.	.	.	4e\	.
.	.	.	.	4d\	.
.	.	.	1A	[1c	.
.	4E/	4G/	.	.	.
.	4D/	4F/	.	.	.
=213.	=213.	=213.	=213.	=213.	=213.
1AA	0C	0E	2A/	1c]	0r
.	.	.	1A	.	.
1AA	.	.	.	1e	.
.	.	.	2A/	.	.
=214	=214	=214	=214	=214	=214
1AA	1E	0r	1.c	1e	1r
[1C	1E	.	.	1e	1e
.	.	.	4B\	.	.
.	.	.	4A/	.	.
=215.	=215.	=215.	=215.	=215.	=215.
2C/]	1E	0r	0G	1.g	2e/
4BB/	.	.	.	.	1e
4AA/	.	.	.	.	.
1GG	[1G	.	.	.	.
.	.	.	.	4f\	2e/
.	.	.	.	4e\	.
=216	=216	=216	=216	=216	=216
1GG	2G/]	1G	1B	1d	1.g
.	4F/	.	.	.	.
.	4E/	.	.	.	.
2GG/	1D	1G	1B	1r	.
[2GG/	.	.	.	.	4f/
.	.	.	.	.	4e/
=217.	=217.	=217.	=217.	=217.	=217.
2GG/]	1r	1G	1B	1d	0d
2GG/	.	.	.	.	.
[1BB-i	1D	[1F	[1d	2d\	.
.	.	.	.	[2d\	.
=218	=218	=218	=218	=218	=218
2BB-/]	2D/	2F/]	2d\]	2d\]	1f
4AA/	1D	2G/	4c\	2d\	.
4GG/	.	.	4B\	.	.
[1FF	.	[1A	1A	[1f	1f
.	2D/	.	.	.	.
=219.	=219.	=219.	=219.	=219.	=219.
0FF]	1.F	2A/]	1r	2f\]	1f
.	.	2G/	.	4e\	.
.	.	.	.	4d\	.
.	.	1F	1A	[1c	[1a
.	4E/	.	.	.	.
.	4D/	.	.	.	.
=220	=220	=220	=220	=220	=220
1AA	0C	0E	2A/	1c]	2a/]
.	.	.	1A	.	4g/
.	.	.	.	.	4f/
1AA	.	.	.	1e	1e
.	.	.	2A/	.	.
=221.	=221.	=221.	=221.	=221.	=221.
1AA	1E	0r	1.c	1e	1r
[1C	1E	.	.	1e	1e
.	.	.	4B\	.	.
.	.	.	4A/	.	.
=222	=222	=222	=222	=222	=222
2C/]	1E	1r	0G	1.g	2e/
4BB/	.	.	.	.	1e
4AA/	.	.	.	.	.
[1GG	[1G	1G	.	.	.
.	.	.	.	4f\	2e/
.	.	.	.	4e\	.
=223.	=223.	=223.	=223.	=223.	=223.
1GG]	2G/]	2G/	1B	0d	1.g
.	4F/	1G	.	.	.
.	4E/	.	.	.	.
1GG	[1D	.	1B	.	.
.	.	2G/	.	.	4f/
.	.	.	.	.	4e/
=224	=224	=224	=224	=224	=224
1GG	1D]	1.G	1B	1r	0d
1GG	1G	.	[1d	1d	.
.	.	4F/	.	.	.
.	.	4E/	.	.	.
=225.	=225.	=225.	=225.	=225.	=225.
0D	1A	0D	2d\]	1d	1f
.	.	.	4c\	.	.
.	.	.	4B\	.	.
.	1F	.	[1A	1d	1f
=226	=226	=226	=226	=226	=226
1D	1F	1A	1A]	1.f	1f
1D	1F	1A	1d	.	[1a
.	.	.	.	4e\	.
.	.	.	.	4d\	.
=227.	=227.	=227.	=227.	=227.	=227.
2AA/	2.E/	1A	1e	0c	2a/]
1C	.	.	.	.	4g/
.	4F/	.	.	.	4f/
.	2G/	2G/	1c	.	[1e
2AA/	[2A/	2F/	.	.	.
=228	=228	=228	=228	=228	=228
2.C/	4A/]	2.E/	1c	0r	1e]
.	4G/	.	.	.	.
.	2.G/	.	.	.	.
4BB/	.	4D/	.	.	.
1AA	.	1C	1c	.	1a
.	4F#i/	.	.	.	.
.	2F#i/	.	.	.	.
=229.	=229.	=229.	=229.	=229.	=229.
0GG	0G	2D/	2.B\	0r	1b
.	.	2E/	.	.	.
.	.	.	4c\	.	.
.	.	2D/	2d\	.	1g
.	.	[2G/	[2e\	.	.
=230	=230	=230	=230	=230	=230
*M3/1	*M3/1	*M3/1	*M3/1	*M3/1	*M3/1
*met()	*met(3)	*met()	*met()	*met()	*met()
*rscale:2/3	*	*rscale:2/3	*rscale:2/3	*rscale:2/3	*rscale:2/3
0.r	0.r	4.G/]	2.e\]	1.r	1.g
.	.	4.F/	.	.	.
.	.	4.E/	4%3.d\	.	.
.	.	4.D/	.	.	.
.	.	1.E	.	1.G	1.g
.	.	.	4.c#i\	.	.
.	.	.	2.c#i\	.	.
=231.	=231.	=231.	=231.	=231.	=231.
0.r	0.r	1.D	0.d	2.A/	4%3.f/
.	.	.	.	2.B\	.
.	.	.	.	.	4.g/
.	.	1.r	.	2.A/	2.a/
.	.	.	.	[2.d\	[2.b-i\
*	*	*	*rscale:1	*	*
=232	=232	=232	=232	=232	=232
*	*	*	*M3/1	*	*
*	*	*	*met(3)	*	*
0.r	0.r	0.r	0.r	4.d\]	4.b-\]
.	.	.	.	4.c\	4.a/
.	.	.	.	4.B-i\	4%3.a/
.	.	.	.	4.A/	.
.	.	.	.	1.B-i	.
.	.	.	.	.	4.g/
.	.	.	.	.	2.g/
*rscale:1	*	*rscale:1	*	*rscale:1	*
=233.	=233.	=233.	=233.	=233.	=233.
*M3/1	*	*M3/1	*	*M3/1	*
*met(3)	*	*met(3)	*	*met(3)	*
1r	0.r	1r	0.r	0.A	0.a
1r	.	1r	.	.	.
1AA	.	1A	.	.	.
*	*	*	*	*	*rscale:1
=234	=234	=234	=234	=234	=234
*	*	*	*	*	*M3/1
*	*	*	*	*	*met(3)
0C	1.c	1.G	0.r	0.r	0.r
.	2B\	2F/	.	.	.
1C	2A/	2E/	.	.	.
.	2G/	2D/	.	.	.
=235.	=235.	=235.	=235.	=235.	=235.
1BB	0G	0D	0.r	1r	0.r
0AA	.	.	.	1r	.
.	1F#i	1C	.	1A	.
=236	=236	=236	=236	=236	=236
0.GG	0.G	0D	1.g	1.d	0.r
.	.	.	2f\	2c\	.
.	.	1G	2e\	2B\	.
.	.	.	2d\	2A/	.
=237.	=237.	=237.	=237.	=237.	=237.
0.r	0.r	1F	0d	0A	0.r
.	.	0E	.	.	.
.	.	.	1c#i	1G	.
=238	=238	=238	=238	=238	=238
0.r	2F/	0D	0.d	1A	1.dd
.	2G/	.	.	.	.
.	2A/	.	.	1r	.
.	2B-i\	.	.	.	2cc\
.	1G	1r	.	1r	2b-i\
.	.	.	.	.	2a/
=239.	=239.	=239.	=239.	=239.	=239.
1r	1.F	0.r	0.r	2A/	0a
.	.	.	.	2B\	.
1r	.	.	.	2c\	.
.	2D/	.	.	2d\	.
1G	1E	.	.	1B	1g
=240	=240	=240	=240	=240	=240
1F	1F	0.r	2c\	1A	0.a
.	.	.	2d\	.	.
1C	2c\	.	2e\	1c	.
.	2B\	.	2f\	.	.
1F	2A/	.	1d	1d	.
.	2G/	.	.	.	.
=241.	=241.	=241.	=241.	=241.	=241.
1E	1.G	0.r	1.c	1e	0.r
0D	.	.	.	0f	.
.	2E/	.	2A/	.	.
.	1F	.	1B	.	.
=242	=242	=242	=242	=242	=242
1C	0G	0.r	1c	1.e	2g/
.	.	.	.	.	2a/
1r	.	.	2g\	.	2b\
.	.	.	2f\	2d\	2cc\
1r	1r	.	2e\	1c	1a
.	.	.	2d\	.	.
=243.	=243.	=243.	=243.	=243.	=243.
0.r	0.r	0.r	1.d	1B	1.g
.	.	.	.	0A	.
.	.	.	2B\	.	2e/
.	.	.	1c	.	1f#i
=244	=244	=244	=244	=244	=244
0.r	0.r	0d	0d	0.G	1g
.	.	.	.	.	2dd\
.	.	.	.	.	2cc\
.	.	1d	1r	.	2b\
.	.	.	.	.	2a/
=245.	=245.	=245.	=245.	=245.	=245.
1r	1r	1c	0.r	0.r	1.a
1r	1r	0B	.	.	.
.	.	.	.	.	2f/
1E	1G	.	.	.	1g
=246	=246	=246	=246	=246	=246
1AA	1.c	1A	0.r	0.r	0a
0C	.	2G/	.	.	.
.	2B\	2F/	.	.	.
.	2A/	2E/	.	.	1r
.	2G/	2D/	.	.	.
=247.	=247.	=247.	=247.	=247.	=247.
1BB	0G	1D	1r	1r	0.r
1C	.	1E	1r	1r	.
1D	1F	1F	1d	1A	.
=248	=248	=248	=248	=248	=248
0.GG	0.G	0D	1.g	1.d	0.r
.	.	.	2f\	2c\	.
.	.	1G	2e\	2B\	.
.	.	.	2d\	2A/	.
=249.	=249.	=249.	=249.	=249.	=249.
0.r	0.r	1F	0d	1A	1r
.	.	1G	.	1B	1r
.	.	1A	1c	1c	1a
=250	=250	=250	=250	=250	=250
0.r	2F/	0D	0.d	1A	1.dd
.	2G/	.	.	.	.
.	2A/	.	.	1r	.
.	2B-i\	.	.	.	2cc\
.	1G	1r	.	1r	2b-i\
.	.	.	.	.	2a/
=251.	=251.	=251.	=251.	=251.	=251.
1r	1.F	0.r	0.r	2A/	0a
.	.	.	.	2B\	.
1r	.	.	.	2c\	.
.	2D/	.	.	2d\	.
1G	1E	.	.	1B	1g
=252	=252	=252	=252	=252	=252
1F	1F	0.r	2c\	1A	0.a
.	.	.	2d\	.	.
1C	2c\	.	2e\	1c	.
.	2B-i\	.	2f\	.	.
1F	2A/	.	1d	1d	.
.	2G/	.	.	.	.
=253.	=253.	=253.	=253.	=253.	=253.
1E	1.G	0.r	1.c	1e	0.r
0D	.	.	.	0f	.
.	2E/	.	2A/	.	.
.	1F	.	1B	.	.
=254	=254	=254	=254	=254	=254
1C	1G	0.r	1c	1.e	2g/
.	.	.	.	.	2a/
1r	1G	.	2g\	.	2b\
.	.	.	2f\	2d\	2cc\
1r	1A	.	2e\	1c	1a
.	.	.	2d\	.	.
=255.	=255.	=255.	=255.	=255.	=255.
0.r	1B	0.r	1.d	1B	1.g
.	1c	.	.	0A	.
.	.	.	2B\	.	2e/
.	1A	.	1c	.	1f#i
=256	=256	=256	=256	=256	=256
0G	0B	0d	1d	0G	1g
.	.	.	1d	.	2dd\
.	.	.	.	.	2cc\
1G	1r	1G	1e	1r	2b\
.	.	.	.	.	2a/
=257.	=257.	=257.	=257.	=257.	=257.
1D	0.r	1A	1f	1r	1.a
0G	.	0B	1g	1r	.
.	.	.	.	.	2f/
.	.	.	1e	1B	1g
=258	=258	=258	=258	=258	=258
1.F	0.r	1.A	0f	1.c	1a
.	.	.	.	.	1a
2E\	.	2G/	.	2c\	.
1D	.	2F/	1r	1B	1b
.	.	2E/	.	.	.
=259.	=259.	=259.	=259.	=259.	=259.
1C	0.r	1.E	0.r	0A	1cc
0BB	.	.	.	.	1dd
.	.	2D/	.	.	.
.	.	1D	.	1G#i	1b
=260	=260	=260	=260	=260	=260
0AA	0.r	1E	0.r	1A	0cc
.	.	1A	.	1c	.
1E	.	1G	.	1B	1r
=261.	=261.	=261.	=261.	=261.	=261.
1.F	0.r	1.A	0.r	1.d	0.r
2E\	.	2G/	.	2c\	.
1D	.	2F/	.	2B\	.
.	.	2E/	.	2A/	.
=262	=262	=262	=262	=262	=262
1C	1r	0E	0.r	0A	0.r
0BB	1r	.	.	.	.
.	1B	1D	.	1G#i	.
=263.	=263.	=263.	=263.	=263.	=263.
0.AA	1.c	0.E	0.r	2A/	0.r
.	.	.	.	1e	.
.	2B\	.	.	2d\	.
.	1A	.	.	1c	.
=264	=264	=264	=264	=264	=264
1r	1G	1r	1r	1B	0.r
1r	0F	1r	1r	0A	.
1D	.	1D	1f	.	.
=265.	=265.	=265.	=265.	=265.	=265.
1.E	0.E	2G/	1.g	0G	0.r
.	.	2A/	.	.	.
.	.	2B\	.	.	.
2D\	.	2c\	2f\	.	.
1C	.	2A/	1e	1r	.
.	.	2G/	.	.	.
=266	=266	=266	=266	=266	=266
1BB	1r	0G	1d	0.r	1r
0AA	1r	.	0c	.	1r
.	1A	1F	.	.	1cc
=267.	=267.	=267.	=267.	=267.	=267.
0.GG	1.B	1D	0.B	1G	1.dd
.	.	2E/	.	1.B	.
.	2A/	2F/	.	.	2cc\
.	1G	1G	.	.	1b
.	.	.	.	2c\	.
=268	=268	=268	=268	=268	=268
0.r	1F	1A	1r	1.d	1a
.	0E	1B	1r	.	0g
.	.	.	.	2c\	.
.	.	1G	1e	1c	.
=269.	=269.	=269.	=269.	=269.	=269.
0D	0D	0A	1.f	1.d	0.f
.	.	.	2e\	2c\	.
1D	1D	1r	1d	2B\	.
.	.	.	.	2A/	.
=270	=270	=270	=270	=270	=270
1AA	1E	1r	1c	0A	1r
1D	1F	1r	0B	.	1r
1E	1G	1E	.	1G	1b
=271.	=271.	=271.	=271.	=271.	=271.
0.AA	1.E	1.A	0A	0.A	1.cc
.	2D/	2G/	.	.	2b\
.	2E/	1E	1A	.	1a
.	2F/	.	.	.	.
=272	=272	=272	=272	=272	=272
0.r	1G	1E	1B	0.r	1g
.	1A	1A	1c	.	0f
.	1F	1D	1d	.	.
=273.	=273.	=273.	=273.	=273.	=273.
0.r	0G	0E	1.B	1r	0e
.	.	.	.	1r	.
.	.	.	2A/	.	.
.	1G	1E	2B\	1G	1e
.	.	.	2c\	.	.
=274	=274	=274	=274	=274	=274
1r	1F	1D	1d	1A	1f
1r	0E	0C	1e	2c\	1g
.	.	.	.	2d\	.
1AA	.	.	1c	1e	1a
=275.	=275.	=275.	=275.	=275.	=275.
1.D	0.D	0F	0d	1A	1.f
.	.	.	.	1A	.
2C/	.	.	.	.	2e/
1BB	.	1D	1d	1B	2f/
.	.	.	.	.	2g/
=276	=276	=276	=276	=276	=276
1AA	1r	1E	1c	1c	1a
0GG	1r	0G	0B	1.d	1b
.	1D	.	.	.	1g
.	.	.	.	2e\	.
=277.	=277.	=277.	=277.	=277.	=277.
1D	1D	1F	0.A	1f	[0.a
1AA	1E	1C	.	1.e	.
[1D	[1F	2D/	.	.	.
.	.	2E/	.	2d\	.
=278	=278	=278	=278	=278	=278
1D]	2F/]	2F/	1r	1.d	0.a]
.	2D/	2G/	.	.	.
0AA	0E	1A	1r	.	.
.	.	.	.	2c#i\	.
.	.	1A	1A	1c#i	.
=279.	=279.	=279.	=279.	=279.	=279.
1.DD	1D	1.F	[0.A	2d\	[0.a
.	.	.	.	1f	.
.	0F	.	.	.	.
2EE/	.	2G/	.	2e\	.
2FF/	.	2A/	.	1d	.
2GG/	.	2B\	.	.	.
=280	=280	=280	=280	=280	=280
[0.AA	[0.E	1c	0.A_	[0.c	0.a_
.	.	0C	.	.	.
=281.	=281.	=281.	=281.	=281.	=281.
0.AA;]	0.E;]	0.C;	0.A;]	0.c;]	0.a;]
=282	=282	=282	=282	=282	=282
0.DD	0.D	0.F	[0.Al	0.d	[0.al
=283.	=283.	=283.	=283.	=283.	=283.
0.DDl	0.Dl	0.Fl	0.A]	0.dl	0.a]
==	==	==	==	==	==
*-	*-	*-	*-	*-	*-
!!!RDF**kern: l=long note in original notation
!!!RDF**kern: i=editorial accidental
!!!ENC:	Chris Gage 01-07-2013
!!!END:	2013/07/22/
!!!EED:	Jesse Rodin
!!!EEV:	2013/08/11/
!!!ONB:	Translated from MusicXML and edited on 2013/08/11/ by Craig Sapp
!!muse2ps: C^@{COM}^i2I150v95,95,95,95,95,130c140
